src/assets/sidebar_icons/bank-line.svg

<svg width="24" height="24" viewBox="0 0 24 24" fill="none" xmlns="http://www.w3.org/2000/svg">
<path d="M2 20H22V22H2V20ZM4 12H6V19H4V12ZM9 12H11V19H9V12ZM13 12H15V19H13V12ZM18 12H20V19H18V12ZM2 7L12 2L22 7V11H2V7ZM4 8.236V9H20V8.236L12 4.236L4 8.236ZM12 8C11.7348 8 11.4804 7.89464 11.2929 7.70711C11.1054 7.51957 11 7.26522 11 7C11 6.73478 11.1054 6.48043 11.2929 6.29289C11.4804 6.10536 11.7348 6 12 6C12.2652 6 12.5196 6.10536 12.7071 6.29289C12.8946 6.48043 13 6.73478 13 7C13 7.26522 12.8946 7.51957 12.7071 7.70711C12.5196 7.89464 12.2652 8 12 8Z" fill="#828282"/>
</svg>

<svg xmlns="http://www.w3.org/2000/svg" viewBox="0 0 24 24" width="24" height="24"><path fill="none" d="M0 0h24v24H0z"/><path d="M2 20h20v2H2v-2zm2-8h2v7H4v-7zm5 0h2v7H9v-7zm4 0h2v7h-2v-7zm5 0h2v7h-2v-7zM2 7l10-5 10 5v4H2V7zm2 1.236V9h16v-.764l-8-4-8 4zM12 8a1 1 0 1 1 0-2 1 1 0 0 1 0 2z"/></svg>
